file/rotten-tomatoes.svg

<svg clip-rule="evenodd" fill-rule="evenodd" stroke-linejoin="round" stroke-miterlimit="1.41421" viewBox="0 0 560 400" xmlns="http://www.w3.org/2000/svg"><path d="m648.62 195.93c-4.146-.47-9.524-1.676-13.109-2.941-5.022-1.772-12.654-5.866-12.654-6.787 0-.3 10.534-18.822 11.044-19.42.071-.084 2.358.992 5.082 2.39 7.474 3.837 10.895 4.86 16.123 4.82 4.207-.033 6.906-.753 8.198-2.187 1.801-2 .976-4.904-1.627-5.729-.641-.203-3.68-.355-6.75-.337-3.905.022-6.358-.14-8.15-.543-10.216-2.29-18.196-8.883-21.45-17.724-.648-1.757-.8-2.961-.822-6.482l-.026-4.324 1.55-3.242c4.486-9.385 13.202-16.08 23.78-18.263 2.902-.6 4.445-.694 9.08-.559 6.014.176 9.605.82 15.15 2.717 5.699 1.95 13.459 5.599 13.42 6.312-.008.163-2.262 4.098-5.008 8.744-3.833 6.486-5.12 8.391-5.54 8.204-2.02-.9-11.14-3.8-13.518-4.3-1.586-.333-4.511-.626-6.501-.65-3.841-.047-4.94.31-6.373 2.073-.98 1.206-.833 3.52.29 4.576.892.838 1.163.878 6.577.973 13.405.235 21.78 3.14 27.71 9.613 3.54 3.862 5.384 8.272 5.743 13.73.511 7.753-2.25 14.496-8.28 20.224-4.138 3.93-5.794 4.937-11.207 6.813-5.89 2.041-15.988 3.062-22.733 2.298zm-322.07-.02c-6.068-.899-12.181-4.26-18.039-9.92-3.615-3.492-5.672-6.254-7.7-10.338-3.03-6.103-4.177-10.835-4.387-18.104-.2-6.972.594-12.343 2.752-18.6 2.233-6.477 4.445-10.212 8.365-14.125 8.465-8.451 18.63-11.802 28.321-9.337 5.607 1.426 10.185 4.096 15.083 8.798l2.23 2.14v-9.5h27.772v76.946h-27.772v-4.84c0-2.663-.075-4.842-.167-4.842-.091 0-1.22 1.06-2.509 2.357-7.064 7.107-15.892 10.559-23.95 9.366zm250.91-.36c-7.835-.993-14.881-3.57-21.428-7.837-7.49-4.881-13.128-13.98-15.556-25.105-.785-3.595-1.041-10.974-.508-14.619 1.861-12.729 9.63-22.96 22.28-29.339 2.397-1.209 4.443-1.904 7.706-2.617 4.038-.883 5.132-.972 12.01-.973 6.762 0 7.893.087 10.63.826 12.802 3.455 21.615 13.546 24.914 28.527.692 3.142.834 4.852.841 10.089l.008 6.305-52.412.36 1.103 1.931c3.137 5.493 8.726 8.339 16.375 8.339 5.387 0 11.187-1.673 14.461-4.17l1.178-.898 17.708 16.712-1.369 1.41c-7.941 8.184-23.91 12.838-37.942 11.06zm-470.68-.53c-6.093-.998-10.52-2.705-15.396-5.935-11.61-7.69-18.797-22.407-18.135-37.134.81-18.046 12.392-31.634 30.62-35.927 7.981-1.88 17.076-2.158 24.066-.737 12.231 2.488 22.77 10.864 28.179 22.395 5.266 11.228 5.435 24.038.458 34.76-5.597 12.056-17.13 19.866-32.956 22.316-3.758.582-13.917.74-16.834.262zm375.94-.53c-8.788-1.23-17.227-5.075-22.84-10.407-6.942-6.595-11.058-16.86-11.058-27.579 0-11.183 5.073-21.063 14.659-28.549 1.667-1.302 2.971-2.426 2.898-2.498-.072-.073-2.839.052-6.147.278s-6.11.316-6.225.2c-.355-.355 1.922-3.364 3.48-4.598 3.19-2.526 7.199-3.42 11.017-2.46 2.864.722 2.76.012-.53-3.59l-2.936-3.218 1.948-1.665c1.072-.915 2.027-1.664 2.122-1.664s1.345 1.867 2.778 4.149 2.738 4.23 2.9 4.33c.16.1.881-.706 1.602-1.791 3.104-4.677 7.504-6.781 11.726-5.609 2.828.786 2.828.95.009 4.474-1.401 1.752-2.548 3.213-2.548 3.248s2.897-.005 6.438-.089c12.435-.293 20.725 1.609 27.681 6.351 2.383 1.624 5.892 5.185 7.65 7.763 1.36 1.992 5.074 9.644 5.943 12.24 1.872 5.603 2.154 15.51.606 21.324-1.093 4.105-3.901 9.586-6.676 13.032-6.267 7.783-16.447 13.536-27.95 15.794-3.569.7-13.148 1.01-16.548.534zm-288.47-.625h-29.53l-.17-22.972c-.092-12.635-.169-30.12-.169-38.855v-15.882h29.286l.071 3.627c.06 3.107.13 3.64.484 3.707.243.047 1.341-.84 2.675-2.162 2.7-2.676 5.053-4.087 9.126-5.475 11.078-3.774 22.042-1.153 30.246 7.23l2.203 2.251.692-1.181c3.247-5.54 12.361-9.526 21.781-9.526 7.805 0 14.775 2.657 19.708 7.512 5.118 5.037 8.184 12.777 8.68 21.916.077 1.401.205 13.239.286 26.307l.146 23.759h-29.758l-.168-5.392.001.001c-.092-2.966-.179-11.365-.192-18.663-.013-7.3-.1-15.45-.192-18.113-.19-5.502-.425-6.309-2.411-8.306-2.323-2.336-6.327-3.183-9.46-2.001-2.747 1.036-4.837 3.8-5.47 7.233-.187 1.017-.278 8.578-.278 23.122v21.61h-14.778c-8.128 0-14.801-.03-14.829-.064-.028-.035-.114-10.383-.191-22.995l-.14-22.931-.866-1.597c-.997-1.838-2.242-3.055-4.157-4.062-1.198-.63-1.614-.708-3.767-.709-2.035 0-2.595.093-3.514.583-2.416 1.288-4.24 4.048-5.087 7.696-.406 1.753-.435 3.667-.35 23.122zm-138.153.005h-28.536v-36.69h-.002v-36.689h-26.752v-28.602l40.448.188c22.246.104 40.534.24 40.639.303s.191 6.356.191 13.985v13.87h-25.988zm370.463-77.207h12.23v25.478h-12.23l.002 10.892c0 6.814.101 11.252.269 11.855.332 1.197 1.622 2.697 2.711 3.152.61.254 2.32.344 6.565.344h5.74v25.224l-6.815-.049c-3.748-.027-7.558-.085-8.472-.129-3.115-.15-8.503-.882-10.832-1.473-10.841-2.75-16.058-8.96-18.094-21.535-.278-1.718-.477-6.2-.685-15.446l-.293-13.025-1.673-.158c-1.213-.1-2.43-.153-3.647-.16l-1.975-.002v-25.224h7.878l-.122-9.108c-.068-5.01-.17-9.883-.23-10.828l-.107-1.72h29.78zm-82.325 50.93c5.786-2.845 9.1-11.159 6.994-17.547-1.157-3.512-4.26-6.42-8.273-7.753-3.876-1.286-6.61-1.145-10.106.524-4.513 2.154-7.192 6.602-7.192 11.943 0 3.888 1.271 7.003 3.95 9.682 4.024 4.024 10.164 5.347 14.627 3.152zm-224.315-.098c4.448-.934 8.12-3.694 10.055-7.56 1-1.998 1.029-2.126 1.025-4.637-.004-3.002-.47-5.242-1.543-7.42-3.681-7.48-12.83-10.42-20.566-6.612-3.791 1.866-7.05 6.222-7.762 10.373-1.12 6.54 3.808 14.306 10.256 16.163 1.4.403 5.928.24 8.536-.307zm472.884-21.732c-.772-4.894-4.58-8.372-10.226-9.34-7.301-1.252-14.551 3.02-16.122 9.502-.235.97-.23.973 2.05 1.102 1.258.07 7.294.16 13.414.198l11.126.07zm-375.124-42.083c-8.925-1.007-16.797-4.98-23.157-11.686-7.223-7.617-11.109-16.992-11.521-27.797-.221-5.788.216-9.62 1.598-14 5.206-16.508 19.973-26.343 40.714-27.116 3.541-.132 6.66-.043 8.828.25 17.8 2.417 30.89 14.82 34.788 32.96.824 3.837.816 12.629-.014 16.27-3.436 15.074-14.036 25.494-29.983 29.476-6.315 1.577-15.528 2.289-21.255 1.642zm254.56-39.982v-38.915h29.186v5.405c0 2.973.122 5.404.27 5.402.149 0 1.081-.988 2.072-2.192 3.332-4.05 8.5-7.667 13.356-9.348 15.184-5.257 31.395 6.568 33.65 24.545.23 1.846.377 12.826.377 28.336v25.322h-29.546v-45.98l-.956-1.92c-1.574-3.157-4.716-4.998-8.593-5.033-4.357-.039-7.609 2.62-9.305 7.61-.746 2.196-.773 2.913-.885 23.974l-.115 21.71h-29.51v-38.915zm-161.43-38.194h12.251v25.584h-12.251l.001 11.44c.001 10.71.046 11.514.705 12.594 1.23 2.017 2.192 2.27 8.644 2.27h5.783v25.221l-6.035-.054c-3.32-.03-7.9-.173-10.179-.318l.001-.001c-13.527-.865-20.855-4.63-24.882-12.779-2.793-5.653-3.454-10.408-3.796-27.295l-.231-11.44h-1.89c-1.04 0-2.643-.103-3.562-.23l-1.672-.228v-24.764h7.567v-21.62h29.546zm57.297.003h12.251v25.222h-12.288l.108 11.62c.099 10.534.17 11.71.765 12.586 1.407 2.073 2.088 2.266 8.442 2.398l5.855.12v24.8l-7.837-.048c-4.31-.027-9.18-.18-10.823-.338v.003c-15.629-1.51-22.78-7.814-25.148-22.169-.42-2.541-.655-7.163-.82-16.06-.127-6.87-.366-12.627-.531-12.791-.165-.165-1.827-.356-3.694-.425l-3.393-.124v-25.154h8.013l-.532-21.62h29.632zm-263.307 76.473-8.017-.104v-101.238h24.186c26.088 0 28.29.125 34.659 1.973 10.334 2.998 18.223 9.496 22.57 18.591 2.114 4.422 2.942 7.959 3.16 13.486.49 12.49-4.809 23.35-14.189 29.082-2.81 1.717-2.94 1.853-2.482 2.58 1.234 1.961 20.736 35.548 20.736 35.713 0 .102-7.443.186-16.54.186h-16.538l-9.6-16.167c-5.28-8.892-9.803-16.445-10.051-16.784-.336-.46-1.193-.668-3.358-.817l-2.906-.199.182 16.983.181 16.983-6.988-.083c-3.843-.045-10.596-.13-15.005-.187zm122.67-10.353c3.497-1.039 4.937-2.945 4.899-6.487-.013-1.189-.284-2.85-.603-3.693-1.675-4.433-1.661-4.376-1.255-5.267.218-.478.788-1.048 1.267-1.266 1.155-.526 1.845-.073 3.406 2.238 2.216 3.28 6.208 7.01 8.8 8.224 2.078.972 2.662 1.089 4.843.965 2.166-.122 2.733-.314 4.474-1.513 2.286-1.574 2.901-2.856 2.88-5.996-.022-3.146-1.654-5.743-4.899-7.795-1.985-1.256-6.21-2.548-9.285-2.84-3.92-.373-5.304-1.012-5.804-2.684-.487-1.625.025-2.958 1.578-4.107.791-.586 1.76-.783 4.684-.954 2.354-.137 4.09-.429 4.804-.807 5.106-2.702 5.438-11.468.563-14.856-1.364-.948-1.868-1.084-3.964-1.072-4.827.027-8.092 3.187-9.632 9.326-.125.496-.608 1.313-1.075 1.816-.986 1.064-2.84 1.226-4.458.39-1.63-.844-1.84-2.694-.901-7.985 1.167-6.583.533-9.34-2.563-11.154-1.971-1.155-5.475-1.56-7.557-.873-1.836.606-4.227 3.061-4.778 4.905-1.11 3.718-.23 6.074 3.888 10.396 1.73 1.816 3.25 3.635 3.38 4.042.59 1.861-1.654 3.997-3.723 3.543-1.18-.26-2.303-1.403-4.129-4.207-2.934-4.507-7.032-5.946-11.069-3.886-3.473 1.772-4.372 5.775-2.066 9.197 1.338 1.986 3.74 3.31 7.44 4.1 5.358 1.145 6.867 2.308 5.405 4.166-.758.964-.83.98-3.325.708-3.765-.409-5.224-.258-7.315.757-2.18 1.058-3.13 2.228-3.723 4.584-1.19 4.725 2.14 8.911 7.07 8.89 2.596-.012 4.567-1.084 7.862-4.274 3.64-3.525 4.29-3.897 5.465-3.127 1.286.843 1.447 2.092.566 4.395-2.004 5.236-.155 10.68 4.15 12.214 1.804.643 2.5.641 4.7-.012zm196.93-5.241c-12.392-1.561-23.904-7.774-29.557-15.952-5.345-7.732-8.064-16.437-8.07-25.834-.008-13.574 5.91-24.516 17.388-32.154 7.19-4.784 12.745-6.35 23.58-6.65 5.522-.152 6.994-.074 9.91.529 5.732 1.185 10.724 3.54 14.889 7.024 3.71 3.104 7.857 9.221 9.949 14.676 2.507 6.539 3.926 17.032 3.034 22.43l-.224 1.351h-26.076c-14.342 0-26.076.137-26.076.305 0 .167.623 1.267 1.383 2.444 3.325 5.144 8.623 7.708 15.898 7.695 5.447-.01 10.592-1.443 14.27-3.973l1.48-1.019 8.257 7.755c2.917 2.737 5.831 5.478 8.742 8.222.752.723.057 1.652-3.155 4.222-4.948 3.96-11.022 6.685-18.337 8.23-4.039.853-13.138 1.22-17.284.698zm-283.897-40.885c6.767-1.424 10.228-4.667 10.607-9.938.265-3.687-.611-6.202-2.954-8.482-3.104-3.023-7.437-4.07-16.926-4.092l-5.008-.01.234 3.298c.129 1.814.234 7.108.234 11.766v8.467l5.675-.245c3.121-.135 6.783-.479 8.138-.764zm299.158-9.262c-.597-3.732-2.794-6.524-6.497-8.257-4.053-1.897-9.342-1.732-13.564.422-2.864 1.46-5.53 4.875-6.237 7.985l-.222.976 2.976.122c1.637.067 7.659.154 13.381.195l10.405.073z" fill="#f93208" fill-rule="nonzero" transform="matrix(.52167 0 0 .52167 99.579 148.662)"/></svg>

<?xml version="1.0" encoding="UTF-8" standalone="no"?>
<!DOCTYPE svg PUBLIC "-//W3C//DTD SVG 1.1//EN" "http://www.w3.org/Graphics/SVG/1.1/DTD/svg11.dtd">
<svg width="100%" height="100%" viewBox="0 0 560 400" version="1.1" xmlns="http://www.w3.org/2000/svg" xmlns:xlink="http://www.w3.org/1999/xlink" xml:space="preserve" xmlns:serif="http://www.serif.com/" style="fill-rule:evenodd;clip-rule:evenodd;stroke-linejoin:round;stroke-miterlimit:1.41421;">
    <g transform="matrix(0.52167,0,0,0.52167,99.579,148.662)">
        <path d="M648.62,195.93C644.474,195.46 639.096,194.254 635.511,192.989C630.489,191.217 622.857,187.123 622.857,186.202C622.857,185.902 633.391,167.38 633.901,166.782C633.972,166.698 636.259,167.774 638.983,169.172C646.457,173.009 649.878,174.032 655.106,173.992C659.313,173.959 662.012,173.239 663.304,171.805C665.105,169.805 664.28,166.901 661.677,166.076C661.036,165.873 657.997,165.721 654.927,165.739C651.022,165.761 648.569,165.599 646.777,165.196C636.561,162.906 628.581,156.313 625.327,147.472C624.679,145.715 624.527,144.511 624.505,140.99L624.479,136.666L626.029,133.424C630.515,124.039 639.231,117.344 649.809,115.161C652.711,114.561 654.254,114.467 658.889,114.602C664.903,114.778 668.494,115.422 674.039,117.319C679.738,119.269 687.498,122.918 687.459,123.631C687.451,123.794 685.197,127.729 682.451,132.375C678.618,138.861 677.331,140.766 676.911,140.579C674.891,139.679 665.771,136.779 663.393,136.279C661.807,135.946 658.882,135.653 656.892,135.629C653.051,135.582 651.952,135.939 650.519,137.702C649.539,138.908 649.686,141.222 650.809,142.278C651.701,143.116 651.972,143.156 657.386,143.251C670.791,143.486 679.166,146.391 685.096,152.864C688.636,156.726 690.48,161.136 690.839,166.594C691.35,174.347 688.589,181.09 682.559,186.818C678.421,190.748 676.765,191.755 671.352,193.631C665.462,195.672 655.364,196.693 648.619,195.929L648.62,195.93ZM326.55,195.91C320.482,195.011 314.369,191.65 308.511,185.99C304.896,182.498 302.839,179.736 300.811,175.652C297.781,169.549 296.634,164.817 296.424,157.548C296.224,150.576 297.018,145.205 299.176,138.948C301.409,132.471 303.621,128.736 307.541,124.823C316.006,116.372 326.171,113.021 335.862,115.486C341.469,116.912 346.047,119.582 350.945,124.284L353.175,126.424L353.175,116.924L380.947,116.924L380.947,193.87L353.175,193.87L353.175,189.03C353.175,186.367 353.1,184.188 353.008,184.188C352.917,184.188 351.788,185.248 350.499,186.545C343.435,193.652 334.607,197.104 326.549,195.911L326.55,195.91ZM577.46,195.55C569.625,194.557 562.579,191.98 556.032,187.713C548.542,182.832 542.904,173.733 540.476,162.608C539.691,159.013 539.435,151.634 539.968,147.989C541.829,135.26 549.598,125.029 562.248,118.65C564.645,117.441 566.691,116.746 569.954,116.033C573.992,115.15 575.086,115.061 581.964,115.06C588.726,115.06 589.857,115.147 592.594,115.886C605.396,119.341 614.209,129.432 617.508,144.413C618.2,147.555 618.342,149.265 618.349,154.502L618.357,160.807L565.945,161.167L567.048,163.098C570.185,168.591 575.774,171.437 583.423,171.437C588.81,171.437 594.61,169.764 597.884,167.267L599.062,166.369L616.77,183.081L615.401,184.491C607.46,192.675 591.491,197.329 577.459,195.551L577.46,195.55ZM106.78,195.02C100.687,194.022 96.26,192.315 91.384,189.085C79.774,181.395 72.587,166.678 73.249,151.951C74.059,133.905 85.641,120.317 103.869,116.024C111.85,114.144 120.945,113.866 127.935,115.287C140.166,117.775 150.705,126.151 156.114,137.682C161.38,148.91 161.549,161.72 156.572,172.442C150.975,184.498 139.442,192.308 123.616,194.758C119.858,195.34 109.699,195.498 106.782,195.02L106.78,195.02ZM482.72,194.49C473.932,193.26 465.493,189.415 459.88,184.083C452.938,177.488 448.822,167.223 448.822,156.504C448.822,145.321 453.895,135.441 463.481,127.955C465.148,126.653 466.452,125.529 466.379,125.457C466.307,125.384 463.54,125.509 460.232,125.735C456.924,125.961 454.122,126.051 454.007,125.935C453.652,125.58 455.929,122.571 457.487,121.337C460.677,118.811 464.686,117.917 468.504,118.877C471.368,119.599 471.264,118.889 467.974,115.287L465.038,112.069L466.986,110.404C468.058,109.489 469.013,108.74 469.108,108.74C469.203,108.74 470.453,110.607 471.886,112.889C473.319,115.171 474.624,117.119 474.786,117.219C474.946,117.319 475.667,116.513 476.388,115.428C479.492,110.751 483.892,108.647 488.114,109.819C490.942,110.605 490.942,110.769 488.123,114.293C486.722,116.045 485.575,117.506 485.575,117.541C485.575,117.576 488.472,117.536 492.013,117.452C504.448,117.159 512.738,119.061 519.694,123.803C522.077,125.427 525.586,128.988 527.344,131.566C528.704,133.558 532.418,141.21 533.287,143.806C535.159,149.409 535.441,159.316 533.893,165.13C532.8,169.235 529.992,174.716 527.217,178.162C520.95,185.945 510.77,191.698 499.267,193.956C495.698,194.656 486.119,194.966 482.719,194.49L482.72,194.49ZM194.25,193.865L164.72,193.865L164.55,170.893C164.458,158.258 164.381,140.773 164.381,132.038L164.381,116.156L193.667,116.156L193.738,119.783C193.798,122.89 193.868,123.423 194.222,123.49C194.465,123.537 195.563,122.65 196.897,121.328C199.597,118.652 201.95,117.241 206.023,115.853C217.101,112.079 228.065,114.7 236.269,123.083L238.472,125.334L239.164,124.153C242.411,118.613 251.525,114.627 260.945,114.627C268.75,114.627 275.72,117.284 280.653,122.139C285.771,127.176 288.837,134.916 289.333,144.055C289.41,145.456 289.538,157.294 289.619,170.362L289.765,194.121L260.007,194.121L259.839,188.729L259.84,188.73C259.748,185.764 259.661,177.365 259.648,170.067C259.635,162.767 259.548,154.617 259.456,151.954C259.266,146.452 259.031,145.645 257.045,143.648C254.722,141.312 250.718,140.465 247.585,141.647C244.838,142.683 242.748,145.447 242.115,148.88C241.928,149.897 241.837,157.458 241.837,172.002L241.837,193.612L227.059,193.612C218.931,193.612 212.258,193.582 212.23,193.548C212.202,193.513 212.116,183.165 212.039,170.553L211.899,147.622L211.033,146.025C210.036,144.187 208.791,142.97 206.876,141.963C205.678,141.333 205.262,141.255 203.109,141.254C201.074,141.254 200.514,141.347 199.595,141.837C197.179,143.125 195.355,145.885 194.508,149.533C194.102,151.286 194.073,153.2 194.158,172.655L194.25,193.865ZM56.097,193.87L27.561,193.87L27.561,157.18L27.559,157.18L27.559,120.491L0.807,120.491L0.807,91.889L41.255,92.077C63.501,92.181 81.789,92.317 81.894,92.38C81.999,92.443 82.085,98.736 82.085,106.365L82.085,120.235L56.097,120.235L56.097,193.87ZM426.56,116.663L438.79,116.663L438.79,142.141L426.56,142.141L426.562,153.033C426.562,159.847 426.663,164.285 426.831,164.888C427.163,166.085 428.453,167.585 429.542,168.04C430.152,168.294 431.862,168.384 436.107,168.384L441.847,168.384L441.847,193.608L435.032,193.559C431.284,193.532 427.474,193.474 426.56,193.43C423.445,193.28 418.057,192.548 415.728,191.957C404.887,189.207 399.67,182.997 397.634,170.422C397.356,168.704 397.157,164.222 396.949,154.976L396.656,141.951L394.983,141.793C393.77,141.693 392.553,141.64 391.336,141.633L389.361,141.631L389.361,116.407L397.239,116.407L397.117,107.299C397.049,102.289 396.947,97.416 396.887,96.471L396.78,94.751L426.56,94.751L426.56,116.663ZM344.235,167.593C350.021,164.748 353.335,156.434 351.229,150.046C350.072,146.534 346.969,143.626 342.956,142.293C339.08,141.007 336.346,141.148 332.85,142.817C328.337,144.971 325.658,149.419 325.658,154.76C325.658,158.648 326.929,161.763 329.608,164.442C333.632,168.466 339.772,169.789 344.235,167.594L344.235,167.593ZM119.92,167.495C124.368,166.561 128.04,163.801 129.975,159.935C130.975,157.937 131.004,157.809 131,155.298C130.996,152.296 130.53,150.056 129.457,147.878C125.776,140.398 116.627,137.458 108.891,141.266C105.1,143.132 101.841,147.488 101.129,151.639C100.009,158.179 104.937,165.945 111.385,167.802C112.785,168.205 117.313,168.042 119.921,167.495L119.92,167.495ZM592.804,145.763C592.032,140.869 588.224,137.391 582.578,136.423C575.277,135.171 568.027,139.443 566.456,145.925C566.221,146.895 566.226,146.898 568.506,147.027C569.764,147.097 575.8,147.187 581.92,147.225L593.046,147.295L592.804,145.763ZM217.68,103.68C208.755,102.673 200.883,98.7 194.523,91.994C187.3,84.377 183.414,75.002 183.002,64.197C182.781,58.409 183.218,54.577 184.6,50.197C189.806,33.689 204.573,23.854 225.314,23.081C228.855,22.949 231.974,23.038 234.142,23.331C251.942,25.748 265.032,38.151 268.93,56.291C269.754,60.128 269.746,68.92 268.916,72.561C265.48,87.635 254.88,98.055 238.933,102.037C232.618,103.614 223.405,104.326 217.678,103.679L217.68,103.68ZM472.24,63.698L472.24,24.783L501.426,24.783L501.426,30.188C501.426,33.161 501.548,35.592 501.696,35.59C501.845,35.59 502.777,34.602 503.768,33.398C507.1,29.348 512.268,25.731 517.124,24.05C532.308,18.793 548.519,30.618 550.774,48.595C551.004,50.441 551.151,61.421 551.151,76.931L551.151,102.253L521.605,102.253L521.605,56.273L520.649,54.353C519.075,51.196 515.933,49.355 512.056,49.32C507.699,49.281 504.447,51.94 502.751,56.93C502.005,59.126 501.978,59.843 501.866,80.904L501.751,102.614L472.241,102.614L472.241,63.699L472.24,63.698ZM310.81,25.504L323.061,25.504L323.061,51.088L310.81,51.088L310.811,62.528C310.812,73.238 310.857,74.042 311.516,75.122C312.746,77.139 313.708,77.392 320.16,77.392L325.943,77.392L325.943,102.613L319.908,102.559C316.588,102.529 312.008,102.386 309.729,102.241L309.73,102.24C296.203,101.375 288.875,97.61 284.848,89.461C282.055,83.808 281.394,79.053 281.052,62.166L280.821,50.726L278.931,50.726C277.891,50.726 276.288,50.623 275.369,50.496L273.697,50.268L273.697,25.504L281.264,25.504L281.264,3.884L310.81,3.884L310.81,25.504ZM368.107,25.507L380.358,25.507L380.358,50.729L368.07,50.729L368.178,62.349C368.277,72.883 368.348,74.059 368.943,74.935C370.35,77.008 371.031,77.201 377.385,77.333L383.24,77.453L383.24,102.253L375.403,102.205C371.093,102.178 366.223,102.025 364.58,101.867L364.58,101.87C348.951,100.36 341.8,94.056 339.432,79.701C339.012,77.16 338.777,72.538 338.612,63.641C338.485,56.771 338.246,51.014 338.081,50.85C337.916,50.685 336.254,50.494 334.387,50.425L330.994,50.301L330.994,25.147L339.007,25.147L338.475,3.527L368.107,3.527L368.107,25.507ZM104.8,101.98L96.783,101.876L96.783,0.638L120.969,0.638C147.057,0.638 149.259,0.763 155.628,2.611C165.962,5.609 173.851,12.107 178.198,21.202C180.312,25.624 181.14,29.161 181.358,34.688C181.848,47.178 176.549,58.038 167.169,63.77C164.359,65.487 164.229,65.623 164.687,66.35C165.921,68.311 185.423,101.898 185.423,102.063C185.423,102.165 177.98,102.249 168.883,102.249L152.345,102.249L142.745,86.082C137.465,77.19 132.942,69.637 132.694,69.298C132.358,68.838 131.501,68.63 129.336,68.481L126.43,68.282L126.612,85.265L126.793,102.248L119.805,102.165C115.962,102.12 109.209,102.035 104.8,101.978L104.8,101.98ZM309.73,102.24M227.47,91.627C230.967,90.588 232.407,88.682 232.369,85.14C232.356,83.951 232.085,82.29 231.766,81.447C230.091,77.014 230.105,77.071 230.511,76.18C230.729,75.702 231.299,75.132 231.778,74.914C232.933,74.388 233.623,74.841 235.184,77.152C237.4,80.432 241.392,84.162 243.984,85.376C246.062,86.348 246.646,86.465 248.827,86.341C250.993,86.219 251.56,86.027 253.301,84.828C255.587,83.254 256.202,81.972 256.181,78.832C256.159,75.686 254.527,73.089 251.282,71.037C249.297,69.781 245.072,68.489 241.997,68.197C238.077,67.824 236.693,67.185 236.193,65.513C235.706,63.888 236.218,62.555 237.771,61.406C238.562,60.82 239.531,60.623 242.455,60.452C244.809,60.315 246.545,60.023 247.259,59.645C252.365,56.943 252.697,48.177 247.822,44.789C246.458,43.841 245.954,43.705 243.858,43.717C239.031,43.744 235.766,46.904 234.226,53.043C234.101,53.539 233.618,54.356 233.151,54.859C232.165,55.923 230.311,56.085 228.693,55.249C227.063,54.405 226.853,52.555 227.792,47.264C228.959,40.681 228.325,37.924 225.229,36.11C223.258,34.955 219.754,34.55 217.672,35.237C215.836,35.843 213.445,38.298 212.894,40.142C211.784,43.86 212.664,46.216 216.782,50.538C218.512,52.354 220.032,54.173 220.162,54.58C220.752,56.441 218.508,58.577 216.439,58.123C215.259,57.863 214.136,56.72 212.31,53.916C209.376,49.409 205.278,47.97 201.241,50.03C197.768,51.802 196.869,55.805 199.175,59.227C200.513,61.213 202.915,62.537 206.615,63.327C211.973,64.472 213.482,65.635 212.02,67.493C211.262,68.457 211.19,68.473 208.695,68.201C204.93,67.792 203.471,67.943 201.38,68.958C199.2,70.016 198.25,71.186 197.657,73.542C196.467,78.267 199.797,82.453 204.727,82.432C207.323,82.42 209.294,81.348 212.589,78.158C216.229,74.633 216.879,74.261 218.054,75.031C219.34,75.874 219.501,77.123 218.62,79.426C216.616,84.662 218.465,90.106 222.77,91.64C224.574,92.283 225.27,92.281 227.47,91.628L227.47,91.627ZM424.4,86.386C412.008,84.825 400.496,78.612 394.843,70.434C389.498,62.702 386.779,53.997 386.773,44.6C386.765,31.026 392.683,20.084 404.161,12.446C411.351,7.662 416.906,6.096 427.741,5.796C433.263,5.644 434.735,5.722 437.651,6.325C443.383,7.51 448.375,9.865 452.54,13.349C456.25,16.453 460.397,22.57 462.489,28.025C464.996,34.564 466.415,45.057 465.523,50.455L465.299,51.806L439.223,51.806C424.881,51.806 413.147,51.943 413.147,52.111C413.147,52.278 413.77,53.378 414.53,54.555C417.855,59.699 423.153,62.263 430.428,62.25C435.875,62.24 441.02,60.807 444.698,58.277L446.178,57.258L454.435,65.013C457.352,67.75 460.266,70.491 463.177,73.235C463.929,73.958 463.234,74.887 460.022,77.457C455.074,81.417 449,84.142 441.685,85.687C437.646,86.54 428.547,86.907 424.401,86.385L424.4,86.386ZM140.503,45.501C147.27,44.077 150.731,40.834 151.11,35.563C151.375,31.876 150.499,29.361 148.156,27.081C145.052,24.058 140.719,23.011 131.23,22.989L126.222,22.979L126.456,26.277C126.585,28.091 126.69,33.385 126.69,38.043L126.69,46.51L132.365,46.265C135.486,46.13 139.148,45.786 140.503,45.501ZM439.661,36.239C439.064,32.507 436.867,29.715 433.164,27.982C429.111,26.085 423.822,26.25 419.6,28.404C416.736,29.864 414.07,33.279 413.363,36.389L413.141,37.365L416.117,37.487C417.754,37.554 423.776,37.641 429.498,37.682L439.903,37.755L439.661,36.239Z" style="fill:rgb(249,50,8);fill-rule:nonzero;"/>
    </g>
</svg>
